packages/kaspersky-hexa-ui-icons/src/iconsSVGs/16/Run.svg

<svg width="16" height="16" viewBox="0 0 16 16" fill="none" xmlns="http://www.w3.org/2000/svg">
<path fill-rule="evenodd" clip-rule="evenodd" d="M4.36836 3.60103L4.36836 12.7941L12.3298 8.19756L4.36836 3.60103ZM3.06836 3.16802C3.06836 2.35973 3.94336 1.85455 4.64336 2.25869L13.3548 7.28823C14.0548 7.69237 14.0548 8.70274 13.3548 9.10688L4.64336 14.1364C3.94336 14.5406 3.06836 14.0354 3.06836 13.2271L3.06836 3.16802Z" fill="black"/>
</svg>

<svg xmlns="http://www.w3.org/2000/svg" width="16" height="16" fill="none" viewBox="0 0 16 16"><path fill="#000" fill-rule="evenodd" d="M4.3684 3.601v9.1931l7.9614-4.5965zm-1.3-.433c0-.8083.875-1.3135 1.575-.9093l8.7114 5.0295c.7.4042.7 1.4145 0 1.8187l-8.7114 5.0295c-.7.4042-1.575-.101-1.575-.9093z"/></svg>
